X:1
T:Title
%%score { ( 1 3 ) | ( 2 4 ) }
L:1/8
M:4/4
K:Bb
V:1 treble nm="Grand Piano"
V:3 treble 
V:2 bass 
V:4 bass 
V:1
 z4 z2[Q:1/4=100] DE | [DF]2 [DF]2 [DF][DF][DB][Ec] | [Fd]2 [Fd]2 [Fd][Fd][FB][FA] | %3
 z B,B,B, [GB][GB][FA][EG] | [DF]6 z2 | [EG]2 [EG]2 z4 | [DF]2 [DF]2 [DF][DF][DB][Fd] | %7
 [=Ec]2[K:bass][K:treble] [Ec]2 z4 |[M:3/4] [DB]6[K:bass] |[M:1/4][K:treble] [Fd][Fd] | %10
[M:4/4] z4 z2 [DB]2[K:bass] | [Fd][Fd][Fd][Fd] [Fd]2 [Fd]2 | [Ge][Ge][Ge][Ge] [Ge][EG]Bc | %13
 [Fd][Fd][Fd][Fd] [Fd]2 [DF]2 | z4 [EG]2 [EB]2 | [DF]F[DF]F B,B, [Fd]2 | [=Ec][Ec][Ec]c ccFc | %17
[M:3/4] [DB]6[K:bass] |] %18
V:2
 z4 z2 B,C | [B,,B,][B,,B,][B,,B,][B,,B,] [B,,B,]2 [B,,F,]2 | %2
 [B,,B,][B,,B,][B,,B,][B,,B,] [B,,B,]2 [D,B,]2 | [E,B,]E,E,E, [E,E]2 [E,B,]2 | %4
 [B,,B,]2 B,,2 B,,2 DD | E,E,E,E, EEEE | B,B,B,B, [B,,B,]2 [B,,B,]2 | .[C,G,]2 [C,G,]C, EEEE | %8
[M:3/4] B,,2 B,,2 B,,2 |[M:1/4] [B,,B,][B,,B,] | %10
[M:4/4] [B,,B,]2 [B,,B,]2 [B,,B,][B,,B,] .[B,,F,]2 | %11
 [B,,B,][B,,B,][B,,B,][B,,B,] [B,,B,]2 [B,,B,]2 | [E,B,]2 [E,B,]2 [E,B,][E,B,][E,B,][E,B,] | %13
 [B,,B,][B,,B,][B,,B,][B,,B,] [B,,B,]2 [B,,B,]2 | z EEE E,E,G,G, | B,2 B,2 z4 | %16
 [C,G,]2 z =E [F,A,_E][F,A,E][F,A,E][F,A,E] |[M:3/4] [B,,B,]2 B,,2 B,,2 |] %18
V:3
 x8 | x8 | x8 | [EG]2 [EG]2 z4 | z2 B,2 B,2 FF | B,B,B,B, GGBB | x8 | %7
 z[K:bass] [C,G,][K:treble] z B, ccFc |[M:3/4] B,2[K:bass] F,2 F,2 |[M:1/4][K:treble] x2 | %10
[M:4/4] [DF][DF][DF][DF] [DF]2 z[K:bass] [B,,F,] | x8 | z4 z2 G2 | x8 | [EG]GGG B,B,B,B, | %15
 z4 [DF]2 z2 | x8 |[M:3/4] z2[K:bass] F,2 F,2 |] %18
V:4
 x8 | x8 | x8 | x8 | x8 | z4 [E,B,]2 [G,B,]2 | x8 | z4 [F,A,]2 [F,A,]2 |[M:3/4] x6 |[M:1/4] x2 | %10
[M:4/4] x8 | x8 | x8 | x8 | [E,B,]2 [E,B,]2 z4 | z D z D B,,B,, [B,,B,]2 | z2 [C,B,]2 z4 | %17
[M:3/4] x6 |] %18

